source/icons/gift.svg

<svg width="78" height="80" viewBox="0 0 78 80" fill="none" xmlns="http://www.w3.org/2000/svg">
<path d="M64.0156 34.7129H14.031C12.2766 34.7129 10.8494 33.2954 10.8494 31.5526V22.0845C10.8494 20.3417 12.2766 18.9236 14.031 18.9236H64.0149C65.7687 18.9236 67.1953 20.3417 67.1953 22.0845V31.5533C67.1959 33.2954 65.7693 34.7129 64.0156 34.7129ZM14.031 21.3457C13.6276 21.3457 13.2869 21.6842 13.2869 22.0845V31.5533C13.2869 31.9602 13.6208 32.2914 14.031 32.2914H64.0149C64.4244 32.2914 64.7578 31.9602 64.7578 31.5533V22.0845C64.7578 21.6836 64.4171 21.3457 64.0149 21.3457H14.031Z" fill="white"/>
<path d="M57.0447 67.1491H20.999C17.6218 67.1491 14.8741 64.4193 14.8741 61.0628V33.5018C14.8741 32.8333 15.4201 32.2908 16.0929 32.2908C16.7656 32.2908 17.3116 32.8333 17.3116 33.5018V61.0628C17.3116 63.0835 18.9661 64.7269 20.999 64.7269H57.0447C59.077 64.7269 60.7308 63.0835 60.7308 61.0628V33.5018C60.7308 32.8333 61.2768 32.2908 61.9496 32.2908C62.6223 32.2908 63.1683 32.8333 63.1683 33.5018V61.0628C63.1683 64.4193 60.4213 67.1491 57.0447 67.1491Z" fill="white"/>
<path d="M39.0225 67.1491C38.3498 67.1491 37.8038 66.6071 37.8038 65.938V33.5018C37.8038 32.8333 38.3498 32.2908 39.0225 32.2908C39.6953 32.2908 40.2413 32.8333 40.2413 33.5018V65.9374C40.2413 66.6071 39.6959 67.1491 39.0225 67.1491Z" fill="white"/>
<path d="M23.8113 21.3416C19.9966 19.2876 18.5731 14.533 20.6383 10.7417C22.7022 6.95225 27.4864 5.53711 31.303 7.58746C37.117 10.7169 40.2565 19.4475 40.3869 19.8175L38.0877 20.621C38.0585 20.5387 35.1256 12.3997 30.1433 9.71773C27.5078 8.30199 24.2062 9.27933 22.7821 11.8946C21.3567 14.5124 22.339 17.7944 24.9734 19.2119L23.8113 21.3416Z" fill="white"/>
<path d="M54.2313 21.3416L53.071 19.2113C54.3477 18.524 55.2782 17.385 55.6926 16.0038C56.1063 14.622 55.9534 13.1626 55.2617 11.8952C54.5719 10.6266 53.4263 9.70258 52.0363 9.29142C50.6457 8.88026 49.1783 9.03164 47.9023 9.71771C42.9201 12.399 39.9871 20.538 39.9579 20.6204L37.6587 19.8168C37.7891 19.4469 40.928 10.7162 46.7421 7.58744C48.5897 6.59315 50.7182 6.37394 52.7316 6.96979C54.7468 7.56503 56.4061 8.90508 57.4061 10.7417C58.4073 12.5777 58.6285 14.6916 58.0289 16.6941C57.4287 18.696 56.0801 20.3461 54.2313 21.3416Z" fill="white"/>
<path d="M61.9496 50.9317H16.0929C15.4201 50.9317 14.8741 50.3891 14.8741 49.7206C14.8741 49.0521 15.4201 48.5095 16.0929 48.5095H61.9496C62.6223 48.5095 63.1683 49.0521 63.1683 49.7206C63.1683 50.3891 62.6229 50.9317 61.9496 50.9317Z" fill="white"/>
</svg>

<svg xmlns="http://www.w3.org/2000/svg" viewBox="0 0 78 80"><path d="M64.016 34.713H14.03c-1.754 0-3.182-1.418-3.182-3.16v-9.469c0-1.742 1.428-3.16 3.182-3.16h49.984c1.754 0 3.18 1.418 3.18 3.16v9.47c0 1.741-1.426 3.159-3.18 3.159ZM14.03 21.346a.751.751 0 0 0-.744.738v9.47c0 .406.334.737.744.737h49.984a.74.74 0 0 0 .743-.738v-9.469a.75.75 0 0 0-.743-.738H14.03ZM57.045 67.15H20.999c-3.377 0-6.125-2.73-6.125-6.087V33.502c0-.669.546-1.211 1.219-1.211s1.219.542 1.219 1.21v27.562c0 2.02 1.654 3.664 3.687 3.664h36.046c2.032 0 3.686-1.644 3.686-3.664V33.502c0-.669.546-1.211 1.219-1.211.672 0 1.218.542 1.218 1.21v27.562c0 3.356-2.747 6.086-6.123 6.086ZM39.023 67.15a1.215 1.215 0 0 1-1.22-1.212V33.502c0-.669.547-1.211 1.22-1.211.672 0 1.218.542 1.218 1.21v32.436c0 .67-.545 1.212-1.218 1.212ZM23.811 21.342c-3.814-2.054-5.238-6.809-3.173-10.6 2.064-3.79 6.848-5.205 10.665-3.155 5.814 3.13 8.954 11.86 9.084 12.23l-2.3.804c-.029-.082-2.961-8.221-7.944-10.903-2.635-1.416-5.937-.439-7.36 2.177-1.426 2.617-.444 5.9 2.19 7.317l-1.162 2.13Z" fill="#fff"/><path d="m54.231 21.342-1.16-2.13a5.376 5.376 0 0 0 2.622-3.208 5.327 5.327 0 0 0-.431-4.109 5.382 5.382 0 0 0-3.226-2.604 5.426 5.426 0 0 0-4.134.427c-4.982 2.681-7.915 10.82-7.944 10.902l-2.3-.803c.131-.37 3.27-9.1 9.084-12.23a7.859 7.859 0 0 1 5.99-.617 7.8 7.8 0 0 1 4.674 3.772 7.72 7.72 0 0 1 .623 5.952 7.788 7.788 0 0 1-3.798 4.648zm7.719 29.59H16.093a1.215 1.215 0 0 1-1.219-1.211c0-.669.546-1.211 1.219-1.211H61.95c.672 0 1.218.542 1.218 1.21 0 .67-.545 1.212-1.218 1.212z" fill="#fff"/></svg>
